packages/kaspersky-hexa-ui-icons/src/iconsSVGs/16x12/FlagBr.svg

<svg width="16" height="12" viewBox="0 0 16 12" fill="none" xmlns="http://www.w3.org/2000/svg">
<g clip-path="url(#clip0_41812_2769)">
<mask id="mask0_41812_2769" style="mask-type:luminance" maskUnits="userSpaceOnUse" x="0" y="0" width="16" height="12">
<rect width="16" height="12" rx="2" fill="white"/>
</mask>
<g mask="url(#mask0_41812_2769)">
<rect width="16" height="12" fill="#05AB41"/>
<path fill-rule="evenodd" clip-rule="evenodd" d="M2.33544 6.55141C1.94609 6.28688 1.94609 5.71307 2.33544 5.44854L7.62534 1.85452C7.85148 1.70088 8.14851 1.70088 8.37465 1.85452L13.6645 5.44854C14.0539 5.71307 14.0539 6.28688 13.6645 6.55141L8.37465 10.1454C8.14851 10.2991 7.85148 10.2991 7.62534 10.1454L2.33544 6.55141Z" fill="#FDD216"/>
<ellipse cx="8.00004" cy="6.00001" rx="2.66667" ry="2.8" fill="#053087"/>
</g>
<mask id="mask1_41812_2769" style="mask-type:luminance" maskUnits="userSpaceOnUse" x="5" y="3" width="6" height="6">
<ellipse cx="8.00004" cy="6.00001" rx="2.66667" ry="2.8" fill="white"/>
</mask>
<g mask="url(#mask1_41812_2769)">
<path d="M5.01714 5.26816C5.43582 4.91216 6.78688 5.24941 8.04806 5.60265C9.30924 5.9559 10.6246 6.6963 10.9595 7.13057" stroke="white" stroke-linecap="square"/>
</g>
</g>
<defs>
<clipPath id="clip0_41812_2769">
<rect width="16" height="12" fill="white"/>
</clipPath>
</defs>
</svg>

<svg xmlns="http://www.w3.org/2000/svg" width="16" height="12" fill="none" viewBox="0 0 16 12"><g clip-path="url(#a)"><mask id="b" width="16" height="12" x="0" y="0" maskUnits="userSpaceOnUse" style="mask-type:luminance"><rect width="16" height="12" fill="#fff" rx="2"/></mask><g mask="url(#b)"><path fill="#05ab41" d="M0 0h16v12H0z"/><path fill="#fdd216" fill-rule="evenodd" d="M2.3354 6.5514c-.3893-.2645-.3893-.8383 0-1.1029l5.29-3.594a.667.667 0 0 1 .7493 0l5.2898 3.594c.3894.2646.3894.8384 0 1.103l-5.2898 3.5939a.6665.6665 0 0 1-.7494 0z" clip-rule="evenodd"/><circle cx="8" cy="6" r="3" fill="#053087"/></g><mask id="c" width="6" height="6" x="5" y="3" maskUnits="userSpaceOnUse" style="mask-type:luminance"><circle cx="8" cy="6" r="3" fill="#fff"/></mask><g mask="url(#c)"><path stroke="#fff" stroke-linecap="square" d="M5.0171 5.2682c.4187-.356 1.7698-.0188 3.031.3344 1.2611.3533 2.5765 1.0937 2.9114 1.528"/></g></g><defs><clipPath id="a"><path fill="#fff" d="M0 0h16v12H0z"/></clipPath></defs></svg>
